static/img/showcase/skyc_dark.svg

<?xml version="1.0" encoding="UTF-8" standalone="no"?>
<!DOCTYPE svg PUBLIC "-//W3C//DTD SVG 1.1//EN" "http://www.w3.org/Graphics/SVG/1.1/DTD/svg11.dtd">
<svg width="100%" height="100%" viewBox="0 0 280 128" version="1.1" xmlns="http://www.w3.org/2000/svg" xmlns:xlink="http://www.w3.org/1999/xlink" xml:space="preserve" xmlns:serif="http://www.serif.com/" style="fill-rule:evenodd;clip-rule:evenodd;stroke-linejoin:round;stroke-miterlimit:2;">
    <g id="Artboard1" transform="matrix(1,0,0,1,-24.9932,-24.9195)">
        <rect x="24.993" y="24.919" width="279.937" height="127.173" style="fill:none;"/>
        <path d="M37.42,42.58C39.288,42.582 41.151,42.773 42.98,43.15C44.02,43.37 45.02,43.63 45.98,43.93C46.838,44.217 47.421,45.026 47.421,45.931C47.421,46.249 47.349,46.563 47.21,46.85L47,47.3C46.513,48.216 45.419,48.643 44.44,48.3L44.21,48.23C43.484,48.008 42.746,47.828 42,47.69C41.24,47.53 40.46,47.4 39.66,47.3C38.881,47.193 38.096,47.14 37.31,47.14C36.496,47.14 35.685,47.227 34.89,47.4C34.158,47.546 33.459,47.828 32.83,48.23C32.235,48.605 31.74,49.12 31.39,49.73C31.007,50.442 30.821,51.242 30.85,52.05C30.82,52.889 31.032,53.718 31.46,54.44C31.896,55.083 32.474,55.617 33.15,56C33.923,56.461 34.749,56.827 35.61,57.09C36.54,57.38 37.54,57.65 38.61,57.9C40.167,58.274 41.702,58.732 43.21,59.27C44.542,59.728 45.789,60.404 46.9,61.27C47.932,62.07 48.767,63.096 49.34,64.27C49.965,65.661 50.266,67.176 50.22,68.7C50.347,71.911 48.801,74.969 46.14,76.77C44.809,77.674 43.325,78.328 41.76,78.7C40.009,79.126 38.212,79.335 36.41,79.32C35.387,79.318 34.366,79.258 33.35,79.14C32.3,79.01 31.26,78.83 30.24,78.6C29.226,78.361 28.225,78.07 27.24,77.73C27.01,77.66 26.78,77.58 26.56,77.49C25.731,77.19 25.175,76.397 25.175,75.516C25.175,75.187 25.252,74.863 25.4,74.57L25.4,74.5L25.59,74.13C26.085,73.207 27.193,72.779 28.18,73.13C28.41,73.22 28.64,73.29 28.87,73.37C29.712,73.661 30.57,73.905 31.44,74.1C32.32,74.3 33.19,74.47 34.04,74.59C34.858,74.71 35.683,74.774 36.51,74.78C37.487,74.779 38.46,74.665 39.41,74.44C40.299,74.232 41.146,73.87 41.91,73.37C43.485,72.362 44.408,70.588 44.33,68.72C44.366,67.843 44.147,66.975 43.7,66.22C43.267,65.552 42.685,64.994 42,64.59C41.234,64.123 40.41,63.756 39.55,63.5C38.61,63.22 37.62,62.96 36.55,62.71C34.97,62.32 33.47,61.88 32.06,61.39C30.733,60.92 29.488,60.246 28.37,59.39C27.327,58.585 26.474,57.561 25.87,56.39C25.242,55.032 24.943,53.545 25,52.05C24.954,50.567 25.298,49.097 26,47.79C26.659,46.605 27.592,45.593 28.72,44.84C29.945,44.044 31.298,43.466 32.72,43.13C34.259,42.758 35.837,42.573 37.42,42.58Z" style="fill:white;fill-rule:nonzero;"/>
        <path d="M69.37,42.71C70.28,42.685 71.19,42.742 72.09,42.88C73.298,43.062 74.477,43.399 75.6,43.88C76.78,44.386 77.882,45.06 78.87,45.88C79.964,46.811 80.885,47.928 81.59,49.18C82.451,50.747 83.077,52.432 83.45,54.18C83.936,56.42 84.165,58.708 84.13,61C84.169,63.315 83.941,65.627 83.45,67.89C83.079,69.614 82.452,71.272 81.59,72.81C80.89,74.08 79.969,75.215 78.87,76.16C77.887,76.988 76.785,77.662 75.6,78.16C74.479,78.645 73.299,78.981 72.09,79.16C71.198,79.311 70.294,79.381 69.39,79.37C67.307,79.404 65.239,79.002 63.32,78.19C60.765,77.15 58.645,75.26 57.32,72.84C56.459,71.3 55.829,69.643 55.45,67.92C54.982,65.644 54.774,63.323 54.83,61C54.793,58.685 55.017,56.374 55.5,54.11C55.88,52.362 56.51,50.678 57.37,49.11C58.071,47.861 58.985,46.745 60.07,45.81C61.055,44.995 62.149,44.322 63.32,43.81C64.438,43.334 65.61,42.998 66.81,42.81C67.658,42.695 68.515,42.662 69.37,42.71ZM69.37,47.49C68.415,47.461 67.465,47.645 66.59,48.03C65.418,48.46 64.382,49.195 63.59,50.16C62.612,51.391 61.897,52.811 61.49,54.33C60.914,56.515 60.651,58.771 60.71,61.03C60.655,63.282 60.918,65.531 61.49,67.71C61.888,69.224 62.603,70.635 63.59,71.85C64.369,72.834 65.408,73.579 66.59,74C67.466,74.378 68.416,74.556 69.37,74.52C70.396,74.548 71.418,74.364 72.37,73.98C73.568,73.557 74.626,72.813 75.43,71.83C76.411,70.61 77.12,69.195 77.51,67.68C78.061,65.498 78.307,63.25 78.24,61C78.298,58.742 78.043,56.487 77.48,54.3C77.082,52.785 76.373,51.368 75.4,50.14C73.886,48.421 71.69,47.451 69.4,47.49L69.37,47.49Z" style="fill:white;fill-rule:nonzero;"/>
        <path d="M114.41,75C114.484,75.232 114.521,75.474 114.521,75.718C114.521,76.777 113.811,77.714 112.79,78C111.72,78.29 110.62,78.55 109.48,78.77C107.901,79.122 106.288,79.3 104.67,79.3C102.523,79.373 100.384,78.985 98.4,78.16C96.5,77.434 94.81,76.248 93.48,74.71C92.123,73.084 91.134,71.184 90.58,69.14C89.919,66.689 89.603,64.158 89.64,61.62C89.597,58.856 89.988,56.102 90.8,53.46C91.485,51.239 92.641,49.192 94.19,47.46C95.684,45.833 97.536,44.576 99.6,43.79C101.654,42.936 103.866,42.527 106.09,42.59C107.214,42.577 108.336,42.702 109.43,42.96C110.05,43.08 110.68,43.22 111.32,43.37C112.379,43.64 113.127,44.602 113.127,45.696C113.127,45.924 113.094,46.151 113.03,46.37L113.03,46.47C112.647,47.699 111.341,48.412 110.1,48.07C109.75,47.98 109.4,47.89 109.1,47.82C108.349,47.611 107.569,47.52 106.79,47.55C102.96,47.55 100.79,48.55 98.7,50.81C96.61,53.07 95.52,56.46 95.52,61C95.515,62.871 95.676,64.738 96,66.58C96.245,68.086 96.797,69.526 97.62,70.81C98.408,71.978 99.511,72.901 100.8,73.47C102.17,74.114 103.679,74.406 105.19,74.32C106.372,74.327 107.55,74.172 108.69,73.86C109.58,73.66 110.5,73.43 111.45,73.18C112.685,72.844 113.982,73.557 114.36,74.78L114.41,75Z" style="fill:white;fill-rule:nonzero;"/>
        <path d="M178.52,24.92L173.61,24.92C172.22,24.893 171.005,25.891 170.76,27.26C170.737,27.4 170.726,27.542 170.726,27.683C170.726,29.143 171.927,30.343 173.386,30.343C173.431,30.343 173.475,30.342 173.52,30.34C174.893,30.356 176.011,31.497 176,32.87L176,76C176.002,77.595 177.315,78.907 178.91,78.907C179.084,78.907 179.258,78.891 179.43,78.86C180.682,78.592 181.573,77.46 181.54,76.18L181.54,28C181.546,26.331 180.189,24.947 178.52,24.92Z" style="fill:white;fill-rule:nonzero;"/>
        <path d="M165.71,60.29L165.71,51.54C165.71,48.207 164.617,45.827 162.43,44.4C160.51,43.18 157.74,42.58 154.1,42.58C150.901,42.567 147.718,43.039 144.66,43.98C143.531,44.305 142.764,45.367 142.81,46.54C142.885,47.856 143.988,48.898 145.306,48.898C145.541,48.898 145.774,48.865 146,48.8C148.55,48.01 151.201,47.589 153.87,47.55C155.5,47.424 157.13,47.801 158.54,48.63C159.59,49.482 160.149,50.803 160.03,52.15L160.03,54.72C160.025,56.099 158.889,57.23 157.51,57.23C157.507,57.23 157.503,57.23 157.5,57.23L157.12,57.23C151.68,57.23 147.45,58.053 144.43,59.7C142.671,60.604 141.153,61.914 140,63.52C138.891,65.252 138.342,67.285 138.43,69.34C138.267,72.102 139.315,74.802 141.3,76.73C143.41,78.547 146.139,79.485 148.92,79.35C152.672,79.404 156.401,78.763 159.92,77.46C160.083,77.352 160.297,77.352 160.46,77.46C160.961,78.303 161.869,78.824 162.85,78.83C164.411,78.83 165.703,77.561 165.73,76L165.73,60.46C165.73,60.4 165.71,60.34 165.71,60.29ZM157.14,73.69C154.784,74.168 152.384,74.399 149.98,74.38C146.053,74.38 144.09,72.577 144.09,68.97C143.973,67.199 144.719,65.477 146.09,64.35C147.818,63.12 149.812,62.314 151.91,62C153.715,61.646 155.551,61.476 157.39,61.49L157.57,61.49C158.938,61.495 160.06,62.622 160.06,63.99C160.06,63.993 160.06,63.997 160.06,64L160.06,71.42C159.85,73.33 158.53,73.36 157.14,73.69Z" style="fill:white;fill-rule:nonzero;"/>
        <path d="M128.57,43.05L123,43.05C122.98,43.05 122.96,43.049 122.94,43.049C121.53,43.049 120.37,44.209 120.37,45.619C120.37,45.62 120.37,45.62 120.37,45.62C120.46,47.074 121.704,48.21 123.16,48.17C124.539,48.175 125.67,49.311 125.67,50.69C125.67,50.693 125.67,50.697 125.67,50.7L125.67,75.95C125.675,77.548 126.991,78.861 128.59,78.861C128.617,78.861 128.643,78.861 128.67,78.86C130.115,78.77 131.245,77.537 131.21,76.09L131.21,45.63C131.21,45.63 131.21,45.63 131.21,45.629C131.21,44.214 130.045,43.049 128.63,43.049C128.61,43.049 128.59,43.05 128.57,43.05Z" style="fill:white;fill-rule:nonzero;"/>
        <path d="M128.35,35.72C130.231,35.693 131.761,34.131 131.75,32.25C131.756,31.327 131.397,30.438 130.75,29.78C130.109,29.143 129.243,28.784 128.34,28.78C127.414,28.774 126.523,29.134 125.86,29.78C125.202,30.431 124.84,31.325 124.86,32.25C124.827,33.169 125.192,34.059 125.86,34.69C126.51,35.364 127.413,35.738 128.35,35.72Z" style="fill:white;fill-rule:nonzero;"/>
        <g id="f9fcca41-8d94-46b7-bfac-6f9066130e4f" transform="matrix(1,0,0,1,0.993231,0.919482)">
            <g transform="matrix(1,0,0,1,-0.993231,-0.919482)">
                <path d="M25.49,119.91L25.49,90.69C25.62,89.5 26.17,88.86 27.34,88.84C31.34,88.793 35.34,88.793 39.34,88.84C40.53,88.84 41.09,89.56 41.13,90.84L41.13,107.12C41.223,107.753 41.397,108.372 41.65,108.96C42.194,108.619 42.692,108.209 43.13,107.74C46.94,102.33 50.77,96.92 54.46,91.43C55.474,89.618 57.461,88.56 59.53,88.73C63.06,88.9 66.6,88.78 70.14,88.78L71.48,88.78C73.32,88.86 73.8,89.78 72.74,91.33C71.29,93.44 69.74,95.48 68.24,97.56C64.69,102.56 60.92,107.3 57.41,112.28C56.485,113.399 56.435,115.016 57.29,116.19C63.48,126.66 69.59,137.19 75.74,147.66C77.3,150.33 76.92,151.11 73.87,151.16C69.87,151.22 65.87,151.16 61.8,151.16C60.022,151.268 58.356,150.251 57.64,148.62C54.28,142.49 50.81,136.42 47.38,130.32C47.28,130.15 47.19,129.97 47.08,129.8C46.742,129.326 46.166,129.078 45.59,129.16C45.08,129.25 44.64,129.571 44.4,130.03C40.56,135.3 41.14,133.68 41.1,140.03L41.1,148.62C41.084,149.969 39.988,151.078 38.64,151.11C35.19,151.19 31.74,151.21 28.29,151.11C26.72,151.072 25.45,149.77 25.45,148.2L25.45,119.87L25.49,119.91Z" style="fill:white;fill-rule:nonzero;"/>
            </g>
            <g transform="matrix(1,0,0,1,-0.993231,-0.919482)">
                <path d="M135.74,119.93C135.82,115.4 135.74,110.87 136.74,106.39C139.19,95.19 147.22,88.39 158.74,87.94C163.46,87.75 168.05,88.26 172.3,90.48C178.66,93.81 181.9,99.37 183.3,106.18C183.64,107.81 182.96,108.58 181.3,108.6L171.14,108.6C169.797,108.626 168.605,107.713 168.28,106.41C167.14,103.16 164.053,100.971 160.608,100.971C159.549,100.971 158.5,101.178 157.52,101.58C155.129,102.457 153.329,104.475 152.73,106.95C152.156,108.639 151.82,110.399 151.73,112.18C151.65,117.79 151.65,123.4 151.89,129C151.896,131.944 153.069,134.768 155.15,136.85C159.09,140.64 166.21,139.08 168.15,134C169.15,131.51 169.29,131.38 171.98,131.38L181.14,131.38C183.04,131.38 183.7,132.11 183.32,133.96C181.15,144.66 175.13,150.83 164.2,151.87C159.467,152.454 154.663,151.881 150.2,150.2C143.06,147.37 139,142 137,134.77C135.8,130.34 135.78,125.77 135.74,121.27L135.74,119.93Z" style="fill:white;fill-rule:nonzero;"/>
            </g>
            <g transform="matrix(1,0,0,1,-0.993231,-0.919482)">
                <path d="M114.05,138.35L114.05,148.49C114.05,150.49 113.57,151.08 111.58,151.12C108.013,151.2 104.44,151.2 100.86,151.12C98.95,151.12 98.44,150.46 98.44,148.44C98.44,142.53 98.32,136.62 98.44,130.71C98.5,127.837 97.81,124.996 96.44,122.47C91.16,112.41 86,102.27 80.71,92.15C78.71,88.28 80.39,88.61 88.19,89.03C90.096,89.103 92.006,89.026 93.9,88.8C95.671,88.414 97.471,89.426 98.06,91.14C100.34,96.267 102.673,101.38 105.06,106.48C105.412,107.052 105.832,107.579 106.31,108.05C106.792,107.57 107.218,107.036 107.58,106.46C109.91,101.39 112.24,96.33 114.48,91.22C114.998,89.62 116.577,88.589 118.25,88.76C122.19,88.85 126.14,88.76 130.09,88.76C130.535,88.745 130.981,88.775 131.42,88.85C132.59,89.08 132.94,89.91 132.33,91.17C131.33,93.27 130.21,95.35 129.13,97.42C124.4,106.53 119.64,115.62 114.97,124.76C114.443,125.86 114.16,127.061 114.14,128.28C114.04,131.62 114.14,134.97 114.14,138.28L114.05,138.35Z" style="fill:white;fill-rule:nonzero;"/>
            </g>
        </g>
        <path d="M286.74,58.8L304.93,108.8L270.73,149.56L218.33,140.32L200.13,90.32L234.34,49.56L286.73,58.8L286.74,58.8Z" style="fill:rgb(187,41,75);fill-rule:nonzero;"/>
        <path d="M286.74,58.8L304.93,108.8L252.53,99.56L234.34,49.56L286.73,58.8L286.74,58.8Z" style="fill:rgb(228,51,102);fill-rule:nonzero;"/>
        <g transform="matrix(1,0,0,1,0.993231,0.919482)">
            <g opacity="0.85">
                <g transform="matrix(1,0,0,1,-0.993231,-0.919482)">
                    <path d="M286.73,58.8L252.53,99.56L200.13,90.32L234.33,49.56L286.73,58.8Z" style="fill:rgb(228,51,102);fill-rule:nonzero;"/>
                </g>
            </g>
        </g>
        <g transform="matrix(1,0,0,1,0.993231,0.919482)">
            <g opacity="0.85">
                <g transform="matrix(1,0,0,1,-0.993231,-0.919482)">
                    <path d="M286.73,58.8L304.93,108.8L270.73,149.56L252.53,99.56L286.73,58.8Z" style="fill:rgb(211,36,94);fill-rule:nonzero;"/>
                </g>
            </g>
        </g>
    </g>
</svg>

<svg id="ed892a54-53e8-4ba4-9747-e8c35f1f9bb9" data-name="Ebene 1" xmlns="http://www.w3.org/2000/svg" viewBox="0 0 330 177"><defs><style>.faedaeb6-8ee6-4a15-8761-73fa3ed84df9{fill:#fff;}.ed67b785-325a-477f-9e9e-f67c75fb31da{fill:#bb294b;}.b69e0db1-63f0-4b33-b46c-bf5501dbd909{fill:#e43366;}.e9f984d4-79b9-4c78-be05-c4ef70f4c529{opacity:0.85;}.f69e35a4-95d6-412f-bc13-69338e1080e4{fill:#d3245e;}</style></defs><path class="faedaeb6-8ee6-4a15-8761-73fa3ed84df9" d="M37.42,42.58a27.69,27.69,0,0,1,5.56.57q1.56.33,3,.78a2.11,2.11,0,0,1,1.23,2.92v0L47,47.3a2.11,2.11,0,0,1-2.56,1l-.23-.07A20.06,20.06,0,0,0,42,47.69q-1.14-.24-2.34-.39a17.19,17.19,0,0,0-2.35-.16,11.36,11.36,0,0,0-2.42.26,6,6,0,0,0-2.06.83,4.31,4.31,0,0,0-1.44,1.5,4.55,4.55,0,0,0-.54,2.32,4.38,4.38,0,0,0,.61,2.39A5.06,5.06,0,0,0,33.15,56a11.18,11.18,0,0,0,2.46,1.09c.93.29,1.93.56,3,.81a44.88,44.88,0,0,1,4.6,1.37,12.74,12.74,0,0,1,3.69,2,8.52,8.52,0,0,1,2.44,3,10.07,10.07,0,0,1,.88,4.43,9.3,9.3,0,0,1-4.08,8.07,13.24,13.24,0,0,1-4.38,1.93,21.86,21.86,0,0,1-5.35.62,27,27,0,0,1-3.06-.18c-1.05-.13-2.09-.31-3.11-.54a30.93,30.93,0,0,1-3-.87c-.23-.07-.46-.15-.68-.24a2.1,2.1,0,0,1-1.16-2.92l0-.07.19-.37a2.13,2.13,0,0,1,2.59-1c.23.09.46.16.69.24a23.75,23.75,0,0,0,2.57.73c.88.2,1.75.37,2.6.49a17.91,17.91,0,0,0,2.47.19,12.64,12.64,0,0,0,2.9-.34,7.81,7.81,0,0,0,2.5-1.07,5.26,5.26,0,0,0,2.42-4.65,4.54,4.54,0,0,0-.63-2.5A5.14,5.14,0,0,0,42,64.59a10.42,10.42,0,0,0-2.45-1.09c-.94-.28-1.93-.54-3-.79-1.58-.39-3.08-.83-4.49-1.32a13.46,13.46,0,0,1-3.69-2,9,9,0,0,1-2.5-3A9.48,9.48,0,0,1,25,52.05a8.45,8.45,0,0,1,1-4.26,8.54,8.54,0,0,1,2.72-2.95,12.7,12.7,0,0,1,4-1.71A19.62,19.62,0,0,1,37.42,42.58Z"/><path class="faedaeb6-8ee6-4a15-8761-73fa3ed84df9" d="M69.37,42.71a15.11,15.11,0,0,1,2.72.17,14.34,14.34,0,0,1,3.51,1,13.36,13.36,0,0,1,3.27,2,12.19,12.19,0,0,1,2.72,3.3,18.33,18.33,0,0,1,1.86,5A30,30,0,0,1,84.13,61a30.11,30.11,0,0,1-.68,6.89,17.66,17.66,0,0,1-1.86,4.92,12.15,12.15,0,0,1-2.72,3.35,12.73,12.73,0,0,1-3.27,2,14,14,0,0,1-3.51,1,15.06,15.06,0,0,1-2.7.21,14.95,14.95,0,0,1-6.07-1.18,12,12,0,0,1-6-5.35,18,18,0,0,1-1.87-4.92A30.64,30.64,0,0,1,54.83,61a30.67,30.67,0,0,1,.67-6.89,18.66,18.66,0,0,1,1.87-5,12.32,12.32,0,0,1,2.7-3.3,13.68,13.68,0,0,1,3.25-2,14.75,14.75,0,0,1,3.49-1A13.42,13.42,0,0,1,69.37,42.71Zm0,4.78a6.42,6.42,0,0,0-2.78.54,7,7,0,0,0-3,2.13,11.48,11.48,0,0,0-2.1,4.17,23.85,23.85,0,0,0-.78,6.7,24,24,0,0,0,.78,6.68,11,11,0,0,0,2.1,4.14,6.69,6.69,0,0,0,3,2.15,6.41,6.41,0,0,0,2.78.52,7.47,7.47,0,0,0,3-.54,6.93,6.93,0,0,0,3.06-2.15,11,11,0,0,0,2.08-4.15A24.31,24.31,0,0,0,78.24,61a24.37,24.37,0,0,0-.76-6.7,11.34,11.34,0,0,0-2.08-4.16,7.82,7.82,0,0,0-6-2.65Z"/><path class="faedaeb6-8ee6-4a15-8761-73fa3ed84df9" d="M114.41,75a2.37,2.37,0,0,1-1.62,3c-1.07.29-2.17.55-3.31.77a22.1,22.1,0,0,1-4.81.53,15,15,0,0,1-6.27-1.14,12.32,12.32,0,0,1-4.92-3.45,14.69,14.69,0,0,1-2.9-5.57,27.33,27.33,0,0,1-.94-7.52,26.39,26.39,0,0,1,1.16-8.16,16.13,16.13,0,0,1,3.39-6,14.21,14.21,0,0,1,5.41-3.67,15.73,15.73,0,0,1,6.49-1.2,13.85,13.85,0,0,1,3.34.37c.62.12,1.25.26,1.89.41a2.4,2.4,0,0,1,1.71,3l0,.1a2.4,2.4,0,0,1-2.93,1.6c-.35-.09-.7-.18-1-.25a7.51,7.51,0,0,0-2.31-.27c-3.83,0-6,1-8.09,3.26S95.52,56.46,95.52,61A31.73,31.73,0,0,0,96,66.58a11.16,11.16,0,0,0,1.62,4.23,7.48,7.48,0,0,0,3.18,2.66,9.11,9.11,0,0,0,4.39.85,13,13,0,0,0,3.5-.46c.89-.2,1.81-.43,2.76-.68a2.39,2.39,0,0,1,2.91,1.6Z"/><path class="faedaeb6-8ee6-4a15-8761-73fa3ed84df9" d="M178.52,24.92h-4.91a2.84,2.84,0,0,0-2.85,2.34,2.66,2.66,0,0,0,2.76,3.08h0A2.51,2.51,0,0,1,176,32.87C176,33,176,76,176,76a2.91,2.91,0,0,0,3.43,2.86,2.67,2.67,0,0,0,2.11-2.68V28A3.07,3.07,0,0,0,178.52,24.92Z"/><path class="faedaeb6-8ee6-4a15-8761-73fa3ed84df9" d="M165.71,60.29V51.54q0-5-3.28-7.14c-1.92-1.22-4.69-1.82-8.33-1.82a31.68,31.68,0,0,0-9.44,1.4,2.56,2.56,0,0,0-1.85,2.56A2.5,2.5,0,0,0,146,48.8a28,28,0,0,1,7.87-1.25,8,8,0,0,1,4.67,1.08,4.07,4.07,0,0,1,1.49,3.52v2.57a2.52,2.52,0,0,1-2.53,2.51h-.38q-8.16,0-12.69,2.47A12.47,12.47,0,0,0,140,63.52a10,10,0,0,0-1.57,5.82,9.52,9.52,0,0,0,2.87,7.39,10.87,10.87,0,0,0,7.62,2.62,30.41,30.41,0,0,0,11-1.89.49.49,0,0,1,.54,0,2.8,2.8,0,0,0,2.39,1.37A2.88,2.88,0,0,0,165.73,76V60.46C165.73,60.4,165.71,60.34,165.71,60.29Zm-8.57,13.4a34.61,34.61,0,0,1-7.16.69q-5.89,0-5.89-5.41a5.51,5.51,0,0,1,2-4.62A13.48,13.48,0,0,1,151.91,62a27.38,27.38,0,0,1,5.48-.51h.18A2.5,2.5,0,0,1,160.06,64V65h0v6.42C159.85,73.33,158.53,73.36,157.14,73.69Z"/><path class="faedaeb6-8ee6-4a15-8761-73fa3ed84df9" d="M128.57,43.05H123a2.57,2.57,0,0,0-2.63,2.57,2.72,2.72,0,0,0,2.79,2.55h0a2.52,2.52,0,0,1,2.51,2.53c0,.14,0,25.25,0,25.25a2.92,2.92,0,0,0,3,2.91,2.71,2.71,0,0,0,2.54-2.77V45.63A2.58,2.58,0,0,0,128.57,43.05Z"/><path class="faedaeb6-8ee6-4a15-8761-73fa3ed84df9" d="M128.35,35.72a3.45,3.45,0,0,0,3.4-3.47,3.49,3.49,0,0,0-1-2.47,3.44,3.44,0,0,0-2.41-1,3.52,3.52,0,0,0-2.48,1,3.37,3.37,0,0,0-1,2.47,3.2,3.2,0,0,0,1,2.44A3.37,3.37,0,0,0,128.35,35.72Z"/><g id="f9fcca41-8d94-46b7-bfac-6f9066130e4f" data-name="y9oIet.tif"><path class="faedaeb6-8ee6-4a15-8761-73fa3ed84df9" d="M25.49,119.91q0-13.66,0-27.33c0-.63,0-1.27,0-1.89.13-1.19.68-1.83,1.85-1.85q6-.07,12,0c1.19,0,1.75.72,1.79,2,0,1.78,0,3.56,0,5.35,0,3.64,0,7.29,0,10.93a7.36,7.36,0,0,0,.52,1.84,7.41,7.41,0,0,0,1.48-1.22c3.81-5.41,7.64-10.82,11.33-16.31a5.31,5.31,0,0,1,5.07-2.7c3.53.17,7.07.05,10.61.05.44,0,.89,0,1.34,0,1.84.08,2.32,1,1.26,2.55-1.45,2.11-3,4.15-4.5,6.23-3.55,5-7.32,9.74-10.83,14.72a3.19,3.19,0,0,0-.12,3.91c6.19,10.47,12.3,21,18.45,31.47,1.56,2.67,1.18,3.45-1.87,3.5-4,.06-8,0-12.07,0a4.26,4.26,0,0,1-4.16-2.54c-3.36-6.13-6.83-12.2-10.26-18.3-.1-.17-.19-.35-.3-.52a1.56,1.56,0,0,0-1.49-.64,1.67,1.67,0,0,0-1.19.87c-3.84,5.27-3.26,3.65-3.3,10,0,2.86,0,5.72,0,8.59a2.52,2.52,0,0,1-2.46,2.49c-3.45.08-6.9.1-10.35,0a2.91,2.91,0,0,1-2.84-2.91q0-14.16,0-28.33Z"/><path class="faedaeb6-8ee6-4a15-8761-73fa3ed84df9" d="M135.74,119.93c.08-4.53,0-9.06,1-13.54,2.45-11.2,10.48-18,22-18.45,4.72-.19,9.31.32,13.56,2.54,6.36,3.33,9.6,8.89,11,15.7.34,1.63-.34,2.4-2,2.42-3.39,0-6.78,0-10.16,0a2.89,2.89,0,0,1-2.86-2.19,8.13,8.13,0,0,0-10.76-4.83,7.63,7.63,0,0,0-4.79,5.37,19.26,19.26,0,0,0-1,5.23c-.08,5.61-.08,11.22.16,16.82a11.14,11.14,0,0,0,3.26,7.85c3.94,3.79,11.06,2.23,13-2.85,1-2.49,1.14-2.62,3.83-2.62,3.06,0,6.11,0,9.16,0,1.9,0,2.56.73,2.18,2.58-2.17,10.7-8.19,16.87-19.12,17.91a29.47,29.47,0,0,1-14-1.67C143.06,147.37,139,142,137,134.77c-1.2-4.43-1.22-9-1.26-13.5Z"/><path class="faedaeb6-8ee6-4a15-8761-73fa3ed84df9" d="M114.05,138.35c0,3.38,0,6.76,0,10.14,0,2-.48,2.59-2.47,2.63q-5.35.12-10.72,0c-1.91,0-2.42-.66-2.42-2.68,0-5.91-.12-11.82,0-17.73a16.56,16.56,0,0,0-2-8.24C91.16,112.41,86,102.27,80.71,92.15c-2-3.87-.32-3.54,7.48-3.12a36.37,36.37,0,0,0,5.71-.23,3.59,3.59,0,0,1,4.16,2.34q3.42,7.69,7,15.34a8.37,8.37,0,0,0,1.25,1.57,9,9,0,0,0,1.27-1.59c2.33-5.07,4.66-10.13,6.9-15.24a3.58,3.58,0,0,1,3.77-2.46c3.94.09,7.89,0,11.84,0a6.56,6.56,0,0,1,1.33.09c1.17.23,1.52,1.06.91,2.32-1,2.1-2.12,4.18-3.2,6.25-4.73,9.11-9.49,18.2-14.16,27.34a8.46,8.46,0,0,0-.83,3.52c-.1,3.34,0,6.69,0,10Z"/></g><polygon class="ed67b785-325a-477f-9e9e-f67c75fb31da" points="286.74 58.8 304.93 108.8 270.73 149.56 270.73 149.56 218.33 140.32 200.13 90.32 234.34 49.56 286.73 58.8 286.73 58.8 286.74 58.8"/><polygon class="b69e0db1-63f0-4b33-b46c-bf5501dbd909" points="286.74 58.8 304.93 108.8 252.53 99.56 234.34 49.56 286.73 58.8 286.73 58.8 286.74 58.8"/><g class="e9f984d4-79b9-4c78-be05-c4ef70f4c529"><polygon class="b69e0db1-63f0-4b33-b46c-bf5501dbd909" points="286.73 58.8 286.73 58.8 252.53 99.56 200.13 90.32 234.33 49.56 286.73 58.8"/></g><g class="e9f984d4-79b9-4c78-be05-c4ef70f4c529"><polygon class="f69e35a4-95d6-412f-bc13-69338e1080e4" points="286.73 58.8 304.93 108.8 270.73 149.56 270.73 149.56 252.53 99.56 286.73 58.8 286.73 58.8"/></g></svg>
